!!!OTL: GIB MIR DIE BLUMEN GIB MIR DEN KRANZ
!!!ARE: Europa, Mitteleuropa, Deutschland; France, Elsass
!!!SCT: B0383
!!!YEM: Copyright 1995, estate of Helmut Schaffrath.
**kern
*ICvox
*Ivox
*M3/8
*k[f#]
*G:
=1
{8g
8a
8b
=2
8dd
8cc
8a
=3
8b
8g
8b
=4
4a
8r}
=5
{8a
8b
8cc
=6
8ee
8dd
8b
=7
8dd
8cc
8a
=8
4g
8r}
=9
{8a
8a
8a
=10
8a
8ff#
8dd
=11
8cc#
8b
8cc#
=12
4.dd}
=13
{8b
8b
8b
=14
8.dd
16cc
8b
=15
8a
8g
8a
=16
4g
8r}
==
!!!AGN: Liebes - Lied, Liebes - Lust
!!!ONB: ESAC (Essen Associative Code) Database: BOEHME
!!!AMT: simple triple
!!!AIN: vox
!!!EED: Helmut Schaffrath
!!!EEV: 1.0
*-
